X:98
T:Stack of Barley, The
R:hornpipe
H:Also played in G, see #14
Z:id:hn-hornpipe-98
M:C|
K:A
ag|fgfe c2ec|BAFA BdcB|AGAB cAce|faec B2ce|
fafe c2ec|BAFA BdcB|AGAB ceBd|c2A2 A2:|
|:AB|cAce a2ga|baga fece|a2ga fece|faec B2AB|
cefg a2gf|ecBA BdcB|AGAB ceBd|c2A2 A2:|

